X: 3049
T: Mrs R. DONALDSON
C: Hugh Dunlop
Q:"Strathspey."
R: Strathspey.
%R:strathspey
B: James Kerr "Merry Melodies" v.3 p.8 #49
Z: 2016 John Chambers <jc:trillian.mit.edu>
M: C
L: 1/8
K: G
uc |\
vB<uG vD>uG vE>vGuD>uG | B>GD>G c>B (A<d) |\
B<G D>G E>GD>G | B>dg>d B<G G ::\
c |\
B>cd>f g>ag>d |
B>dg>B c<A A>c |\
[1 B>cd>f g>ag>d | B<g A>d B<G G :|\
[2 g>ab>g a>gf>d | g<Be>c B<G G |]

%%sep 1 1 500
%%sep 1 1 500

